icons-rebrand/svg/disappearing-pen-regular.svg

<svg width="32" height="32" viewBox="0 0 32 32" fill="none" xmlns="http://www.w3.org/2000/svg">
<path d="M22.9687 4.00597C22.8242 3.61827 22.3896 3.42397 22.0029 3.56747C21.333 3.81847 20.7363 4.20317 20.2295 4.71007L20.1367 4.80287C19.8437 5.09587 19.8437 5.57047 20.1367 5.86337C20.2832 6.00987 20.4746 6.08307 20.667 6.08307C20.8594 6.08307 21.0508 6.00987 21.1973 5.86337L21.2899 5.77067C21.6444 5.41617 22.0614 5.14767 22.5301 4.97187C22.9179 4.82637 23.1142 4.39467 22.9687 4.00597Z" fill="#0F0F0F"/>
<path d="M17.3975 7.54202C17.6904 7.24902 18.165 7.24902 18.458 7.54202C18.751 7.83492 18.751 8.30962 18.458 8.60252L4.8203 22.2402C4.7793 22.2812 4.75 22.3525 4.75 22.4101V26.9999C4.75 27.1356 4.8643 27.2499 5 27.2499H9.5899C9.6475 27.2499 9.7188 27.2206 9.7598 27.1796L15.1768 21.7626C15.4697 21.4696 15.9443 21.4697 16.2373 21.7626C16.5303 22.0555 16.5303 22.5301 16.2373 22.8231L10.8203 28.2401C10.496 28.5644 10.0478 28.7499 9.5898 28.7499H5C4.0352 28.7499 3.25 27.9647 3.25 26.9999V22.4101C3.25 21.9521 3.4355 21.5039 3.7598 21.1797L17.3975 7.54202Z" fill="#0F0F0F"/>
<path d="M17.9326 19.0068L19.3027 17.6367C19.5957 17.3437 20.0703 17.3438 20.3633 17.6367C20.6563 17.9296 20.6563 18.4042 20.3633 18.6972L18.9932 20.0673C18.8467 20.2138 18.6553 20.287 18.4629 20.287C18.2705 20.287 18.0791 20.2138 17.9326 20.0673C17.6396 19.7744 17.6396 19.2998 17.9326 19.0068Z" fill="#0F0F0F"/>
<path d="M27.3535 6.7403C27.1035 6.7403 26.8594 6.6153 26.7168 6.3887C26.5762 6.1631 26.4111 5.9541 26.2257 5.7675C26.0382 5.581 25.8253 5.413 25.5987 5.2734C25.2462 5.0557 25.1368 4.5937 25.3536 4.2412C25.5704 3.8897 26.0313 3.7793 26.3858 3.9961C26.71 4.1963 27.0137 4.4355 27.2881 4.708C27.5557 4.9785 27.7891 5.2744 27.9883 5.5918C28.208 5.9434 28.1016 6.4063 27.751 6.626C27.6269 6.7032 27.4892 6.7403 27.3535 6.7403Z" fill="#0F0F0F"/>
<path d="M27.9961 9.00682C27.6074 8.86322 27.1768 9.06252 27.0332 9.45212C26.8584 9.92572 26.5879 10.3496 26.2295 10.7099L26.1524 10.787C25.8594 11.08 25.8594 11.5546 26.1524 11.8475C26.2989 11.994 26.4903 12.0672 26.6827 12.0672C26.8751 12.0672 27.0665 11.994 27.213 11.8475L27.2911 11.7694C27.8048 11.2538 28.1915 10.6483 28.4415 9.96962C28.584 9.58102 28.3848 9.15042 27.9961 9.00682Z" fill="#0F0F0F"/>
<path d="M22.043 14.8964L23.4131 13.5263C23.7061 13.2334 24.1807 13.2334 24.4737 13.5263C24.7667 13.8192 24.7667 14.2938 24.4737 14.5868L23.1036 15.9569C22.9571 16.1034 22.7657 16.1766 22.5733 16.1766C22.3809 16.1766 22.1895 16.1034 22.043 15.9569C21.75 15.664 21.75 15.1894 22.043 14.8964Z" fill="#0F0F0F"/>
</svg>

<svg xmlns="http://www.w3.org/2000/svg" width="32" height="32" viewBox="0 0 32 32"><path d="M22.969 4.006a.752.752 0 0 0-.966-.439A4.946 4.946 0 0 0 20.23 4.71l-.093.093a.75.75 0 1 0 1.06 1.06l.093-.092a3.46 3.46 0 0 1 1.24-.8.75.75 0 0 0 .439-.965ZM17.398 7.542a.75.75 0 1 1 1.06 1.06L4.82 22.24a.263.263 0 0 0-.07.17V27c0 .136.114.25.25.25h4.59c.058 0 .129-.03.17-.07l5.417-5.417a.75.75 0 1 1 1.06 1.06L10.82 28.24c-.324.324-.772.51-1.23.51H5c-.965 0-1.75-.785-1.75-1.75v-4.59c0-.458.186-.906.51-1.23L17.398 7.542ZM17.933 19.007l1.37-1.37a.75.75 0 1 1 1.06 1.06l-1.37 1.37a.747.747 0 0 1-1.06 0 .75.75 0 0 1 0-1.06ZM27.354 6.74a.751.751 0 0 1-.637-.351 3.534 3.534 0 0 0-.491-.622 3.492 3.492 0 0 0-.627-.494.751.751 0 0 1 .787-1.277c.324.2.628.44.902.712.268.27.501.566.7.884a.75.75 0 0 1-.634 1.148ZM27.996 9.007a.75.75 0 0 0-.963.445 3.483 3.483 0 0 1-.803 1.258l-.078.077a.75.75 0 1 0 1.061 1.06l.078-.078c.514-.515.9-1.12 1.15-1.8a.75.75 0 0 0-.445-.962ZM22.043 14.896l1.37-1.37a.75.75 0 1 1 1.06 1.06l-1.37 1.37a.747.747 0 0 1-1.06 0 .75.75 0 0 1 0-1.06Z"/></svg>
